!!!SOCIAL_FUNCTION:	songs of dances presented at makah day celebrations
!!!PDT:	1939
!!!OTL: No_59_Young_Doctor's_Canoe_Song_(c).krn
!!!LANG: Non-Tone
!!!LING_GROUP: Wakashan
!!!REG: Pacific Northwest
**kern
*staff1
=1-
*clefF4
*k[b-e-]
*M2/4
4r
8.B-\L
16B-\Jk
=2!|:
4..d\
16d\
=3||
*M3/4
16d\LK
8.B-\J
4r
8d\L
8d\J
=4||
*M2/4
4..c#\
16d\
=5||
*M3/4
16d\LK
8.B-\J
4r
8r
16r
16d\
=6||
*M2/4
4..d\
16d\
=7
16d\LK
8.B-\J
8r
16r
16B-\
=8
4c\
8.B-\L
16F\Jk
=9
4..c\
16d\
=10
16d\LK
[8.B-\J
8B-\]
8r
=11
8B-\
8r
8B-\
8r
=12
4B-\
4r
=13
4..c\
16d\
=14
(16d\LK
8.B-\J)
8r
16r
16B-\
=15
4c\
8.B-\L
16F\Jk
=16
8B-\
8r
12B-\L
12B-\
12B-\J
==:|!
*-
